Numix/16/status/indicator-keyboard-Bn-3.svg

<?xml version="1.0" encoding="UTF-8" standalone="no"?>
<svg
   xmlns:dc="http://purl.org/dc/elements/1.1/"
   xmlns:cc="http://creativecommons.org/ns#"
   xmlns:rdf="http://www.w3.org/1999/02/22-rdf-syntax-ns#"
   xmlns:svg="http://www.w3.org/2000/svg"
   xmlns="http://www.w3.org/2000/svg"
   xmlns:sodipodi="http://sodipodi.sourceforge.net/DTD/sodipodi-0.dtd"
   xmlns:inkscape="http://www.inkscape.org/namespaces/inkscape"
   viewBox="0 0 16 16"
   id="svg2"
   version="1.1"
   inkscape:version="0.91 r13725"
   sodipodi:docname="indicator-keyboard-Bn-3.svg">
  <metadata
     id="metadata14">
    <rdf:RDF>
      <cc:Work
         rdf:about="">
        <dc:format>image/svg+xml</dc:format>
        <dc:type
           rdf:resource="http://purl.org/dc/dcmitype/StillImage" />
      </cc:Work>
    </rdf:RDF>
  </metadata>
  <defs
     id="defs12" />
  <sodipodi:namedview
     pagecolor="#ffffff"
     bordercolor="#666666"
     borderopacity="1"
     objecttolerance="10"
     gridtolerance="10"
     guidetolerance="10"
     inkscape:pageopacity="0"
     inkscape:pageshadow="2"
     inkscape:window-width="640"
     inkscape:window-height="480"
     id="namedview10"
     showgrid="false"
     inkscape:zoom="14.75"
     inkscape:cx="8"
     inkscape:cy="8"
     inkscape:window-x="65"
     inkscape:window-y="24"
     inkscape:window-maximized="0"
     inkscape:current-layer="svg2" />
  <path
     style="fill:#ececec;fill-opacity:1"
     d="M 1.5996094 0 C 0.71320937 2.9605947e-16 0 0.71320937 0 1.5996094 L 0 14.400391 C 2.9605947e-16 15.286791 0.71320937 16 1.5996094 16 L 14.400391 16 C 15.286791 16 16 15.286791 16 14.400391 L 16 1.5996094 C 16 0.71320937 15.286791 0 14.400391 0 L 1.5996094 0 z M 3.15625 4.8046875 C 3.49225 4.8046875 3.809375 4.8327187 4.109375 4.8867188 C 4.415375 4.9407188 4.6821563 5.03025 4.9101562 5.15625 C 5.1381562 5.28225 5.3191719 5.4501562 5.4511719 5.6601562 C 5.5891719 5.8641562 5.6582031 6.1197813 5.6582031 6.4257812 C 5.6582031 6.7617813 5.5704844 7.0490625 5.3964844 7.2890625 C 5.2284844 7.5230625 5.0008906 7.6853906 4.7128906 7.7753906 C 4.8928906 7.8173906 5.0570313 7.8770781 5.2070312 7.9550781 C 5.3570313 8.0330781 5.4895156 8.1357187 5.6035156 8.2617188 C 5.7175156 8.3817188 5.8052344 8.5309375 5.8652344 8.7109375 C 5.9312344 8.8849375 5.9628906 9.0957969 5.9628906 9.3417969 C 5.9628906 9.9297971 5.7297187 10.379406 5.2617188 10.691406 C 4.7937187 10.997406 4.0697969 11.150391 3.0917969 11.150391 C 2.9897969 11.150391 2.8704219 11.144813 2.7324219 11.132812 C 2.6004219 11.126813 2.4623594 11.113703 2.3183594 11.095703 C 2.1803594 11.083703 2.047875 11.068781 1.921875 11.050781 C 1.795875 11.026781 1.6896094 11.002516 1.5996094 10.978516 L 1.5996094 4.9765625 C 1.7076094 4.9465625 1.8269844 4.9222969 1.9589844 4.9042969 C 2.0909844 4.8802969 2.2252812 4.8616094 2.3632812 4.8496094 C 2.5072813 4.8316094 2.6453437 4.8204531 2.7773438 4.8144531 C 2.9153437 4.8084531 3.04225 4.8046875 3.15625 4.8046875 z M 3.15625 5.3261719 C 2.93425 5.3261719 2.7438906 5.3337031 2.5878906 5.3457031 C 2.4378906 5.3577031 2.3129375 5.372625 2.2109375 5.390625 L 2.2109375 7.5859375 L 3.3984375 7.5859375 C 3.6204375 7.5859375 3.8312969 7.5710156 4.0292969 7.5410156 C 4.2272969 7.5050156 4.3970156 7.4453281 4.5410156 7.3613281 C 4.6910156 7.2713281 4.8085781 7.1537656 4.8925781 7.0097656 C 4.9765781 6.8597656 5.0195313 6.6713594 5.0195312 6.4433594 C 5.0195312 6.2393594 4.9728125 6.0676875 4.8828125 5.9296875 C 4.7928125 5.7856875 4.6640938 5.668125 4.4960938 5.578125 C 4.3340938 5.488125 4.1401094 5.426625 3.9121094 5.390625 C 3.6841094 5.348625 3.43225 5.3261719 3.15625 5.3261719 z M 9.0214844 6.3535156 C 9.3754844 6.3535156 9.6702969 6.4038594 9.9042969 6.5058594 C 10.144297 6.6078594 10.332703 6.7552656 10.470703 6.9472656 C 10.614703 7.1332656 10.717344 7.3570938 10.777344 7.6210938 C 10.837344 7.8850938 10.867187 8.1761406 10.867188 8.4941406 L 10.867188 11.095703 L 10.283203 11.095703 L 10.283203 8.6835938 C 10.283203 8.3535938 10.258937 8.0756562 10.210938 7.8476562 C 10.168937 7.6196562 10.094328 7.4330625 9.9863281 7.2890625 C 9.8843281 7.1450625 9.7462656 7.0424219 9.5722656 6.9824219 C 9.4042656 6.9164219 9.1896406 6.8847656 8.9316406 6.8847656 C 8.6556406 6.8847656 8.4168906 6.8996875 8.2128906 6.9296875 C 8.0148906 6.9596875 7.8861719 6.9857656 7.8261719 7.0097656 L 7.8261719 11.095703 L 7.2402344 11.095703 L 7.2402344 6.6054688 C 7.4142344 6.5574688 7.6493594 6.5033594 7.9433594 6.4433594 C 8.2373594 6.3833594 8.5954844 6.3535156 9.0214844 6.3535156 z M 2.2109375 8.1074219 L 2.2109375 10.564453 C 2.3009375 10.576453 2.4352344 10.591375 2.6152344 10.609375 C 2.7952344 10.621375 2.9780625 10.628906 3.1640625 10.628906 C 3.4400625 10.628906 3.7068437 10.610219 3.9648438 10.574219 C 4.2288438 10.538219 4.4602031 10.472953 4.6582031 10.376953 C 4.8562031 10.280953 5.0147656 10.148469 5.1347656 9.9804688 C 5.2547656 9.8124687 5.3164062 9.5960312 5.3164062 9.3320312 C 5.3164062 9.0920313 5.2734531 8.8942813 5.1894531 8.7382812 C 5.1054531 8.5762813 4.9860781 8.449375 4.8300781 8.359375 C 4.6740781 8.263375 4.4819062 8.1981094 4.2539062 8.1621094 C 4.0319063 8.1261094 3.7818594 8.1074219 3.5058594 8.1074219 L 2.2109375 8.1074219 z M 13.033203 8.7539062 C 13.236003 8.7539062 13.408434 8.7793781 13.552734 8.8300781 C 13.700934 8.8807781 13.824375 8.953275 13.921875 9.046875 C 14.019375 9.136575 14.091872 9.2463 14.138672 9.375 C 14.185472 9.4997999 14.208984 9.6350031 14.208984 9.7832031 C 14.208984 10.021103 14.144325 10.217041 14.015625 10.369141 C 13.890825 10.517341 13.728197 10.625106 13.529297 10.691406 C 13.638497 10.718706 13.744303 10.759859 13.845703 10.818359 C 13.951003 10.872959 14.045053 10.945456 14.126953 11.035156 C 14.208853 11.120956 14.275472 11.226762 14.326172 11.351562 C 14.376872 11.476363 14.400391 11.623316 14.400391 11.791016 C 14.400391 11.962616 14.370994 12.119372 14.308594 12.263672 C 14.250094 12.407972 14.159962 12.535331 14.039062 12.644531 C 13.922062 12.749831 13.771191 12.834084 13.587891 12.896484 C 13.404591 12.954984 13.191012 12.984375 12.945312 12.984375 C 12.816612 12.984375 12.697091 12.974578 12.587891 12.955078 C 12.482591 12.939478 12.388541 12.919884 12.306641 12.896484 C 12.224741 12.873084 12.154203 12.849572 12.095703 12.826172 C 12.041103 12.802772 11.999956 12.783178 11.972656 12.767578 L 12.072266 12.427734 C 12.095666 12.443334 12.134853 12.462928 12.189453 12.486328 C 12.244053 12.509728 12.308712 12.533241 12.382812 12.556641 C 12.460812 12.576141 12.547025 12.593775 12.640625 12.609375 C 12.738125 12.624975 12.843931 12.632813 12.957031 12.632812 C 13.327531 12.632812 13.592053 12.556397 13.751953 12.404297 C 13.911853 12.248297 13.992187 12.040597 13.992188 11.779297 C 13.992188 11.607697 13.958878 11.464662 13.892578 11.351562 C 13.830178 11.238462 13.742006 11.148331 13.628906 11.082031 C 13.519706 11.011831 13.390387 10.962847 13.242188 10.935547 C 13.097888 10.904347 12.94505 10.888672 12.78125 10.888672 L 12.722656 10.888672 L 12.722656 10.574219 L 12.857422 10.574219 C 12.962722 10.574219 13.068534 10.564422 13.177734 10.544922 C 13.290834 10.521522 13.392722 10.480375 13.482422 10.421875 C 13.576022 10.363375 13.652437 10.285 13.710938 10.1875 C 13.773338 10.09 13.804688 9.9646001 13.804688 9.8125 C 13.804688 9.6838 13.783134 9.5760281 13.740234 9.4863281 C 13.697334 9.3927281 13.638553 9.3182719 13.564453 9.2636719 C 13.494253 9.2090719 13.41 9.1698844 13.3125 9.1464844 C 13.2189 9.1191844 13.120925 9.1054687 13.015625 9.1054688 C 12.805025 9.1054688 12.640437 9.1348594 12.523438 9.1933594 C 12.406438 9.2518594 12.310428 9.3067219 12.236328 9.3574219 L 12.072266 9.0585938 C 12.111266 9.0312937 12.16025 8.9999438 12.21875 8.9648438 C 12.28115 8.9297438 12.353647 8.8964344 12.435547 8.8652344 C 12.517446 8.8340344 12.607578 8.8085625 12.705078 8.7890625 C 12.806478 8.7656625 12.916203 8.7539062 13.033203 8.7539062 z "
     id="path4" />
</svg>

<svg xmlns="http://www.w3.org/2000/svg" viewBox="0 0 16 16">
 <path d="m 1.6 0 c -0.886 0 -1.6 0.713 -1.6 1.6 l 0 12.801 c 0 0.886 0.713 1.6 1.6 1.6 l 12.801 0 c 0.886 0 1.6 -0.713 1.6 -1.6 l 0 -12.801 c 0 -0.886 -0.713 -1.6 -1.6 -1.6 l -12.801 0 z m 1.557 4.805 c 0.336 0 0.653 0.028 0.953 0.082 c 0.306 0.054 0.573 0.144 0.801 0.27 c 0.228 0.126 0.409 0.294 0.541 0.504 c 0.138 0.204 0.207 0.46 0.207 0.766 c 0 0.336 -0.088 0.623 -0.262 0.863 c -0.168 0.234 -0.396 0.396 -0.684 0.486 c 0.18 0.042 0.344 0.102 0.494 0.18 c 0.15 0.078 0.282 0.181 0.396 0.307 c 0.114 0.12 0.202 0.269 0.262 0.449 c 0.066 0.174 0.098 0.385 0.098 0.631 c 0 0.588 -0.233 1.038 -0.701 1.35 c -0.468 0.306 -1.192 0.459 -2.17 0.459 c -0.102 0 -0.221 -0.006 -0.359 -0.018 c -0.132 -0.006 -0.27 -0.019 -0.414 -0.037 c -0.138 -0.012 -0.27 -0.027 -0.396 -0.045 c -0.126 -0.024 -0.232 -0.048 -0.322 -0.072 l 0 -6 c 0.108 -0.03 0.227 -0.054 0.359 -0.072 c 0.132 -0.024 0.266 -0.043 0.404 -0.055 c 0.144 -0.018 0.282 -0.029 0.414 -0.035 c 0.138 -0.006 0.265 -0.01 0.379 -0.01 z m 0 0.521 c -0.222 0 -0.412 0.008 -0.568 0.02 c -0.15 0.012 -0.275 0.027 -0.377 0.045 l 0 2.195 l 1.188 0 c 0.222 0 0.433 -0.015 0.631 -0.045 c 0.198 -0.036 0.368 -0.096 0.512 -0.18 c 0.15 -0.09 0.268 -0.208 0.352 -0.352 c 0.084 -0.15 0.127 -0.338 0.127 -0.566 c 0 -0.204 -0.047 -0.376 -0.137 -0.514 c -0.09 -0.144 -0.219 -0.262 -0.387 -0.352 c -0.162 -0.09 -0.356 -0.152 -0.584 -0.188 c -0.228 -0.042 -0.48 -0.064 -0.756 -0.064 z m 5.865 1.027 c 0.354 0 0.649 0.05 0.883 0.152 c 0.24 0.102 0.428 0.249 0.566 0.441 c 0.144 0.186 0.247 0.41 0.307 0.674 c 0.06 0.264 0.09 0.555 0.09 0.873 l 0 2.602 l -0.584 0 l 0 -2.412 c 0 -0.33 -0.024 -0.608 -0.072 -0.836 c -0.042 -0.228 -0.117 -0.415 -0.225 -0.559 c -0.102 -0.144 -0.24 -0.247 -0.414 -0.307 c -0.168 -0.066 -0.383 -0.098 -0.641 -0.098 c -0.276 0 -0.515 0.015 -0.719 0.045 c -0.198 0.03 -0.327 0.056 -0.387 0.08 l 0 4.086 l -0.586 0 l 0 -4.49 c 0.174 -0.048 0.409 -0.102 0.703 -0.162 c 0.294 -0.06 0.652 -0.09 1.078 -0.09 z m -6.811 1.754 l 0 2.457 c 0.09 0.012 0.224 0.027 0.404 0.045 c 0.18 0.012 0.363 0.02 0.549 0.02 c 0.276 0 0.543 -0.019 0.801 -0.055 c 0.264 -0.036 0.495 -0.101 0.693 -0.197 c 0.198 -0.096 0.357 -0.228 0.477 -0.396 c 0.12 -0.168 0.182 -0.384 0.182 -0.648 c 0 -0.24 -0.043 -0.438 -0.127 -0.594 c -0.084 -0.162 -0.203 -0.289 -0.359 -0.379 c -0.156 -0.096 -0.348 -0.161 -0.576 -0.197 c -0.222 -0.036 -0.472 -0.055 -0.748 -0.055 l -1.295 0 z m 10.822 0.646 c 0.203 0 0.375 0.025 0.52 0.076 c 0.148 0.051 0.272 0.123 0.369 0.217 c 0.098 0.09 0.17 0.199 0.217 0.328 c 0.047 0.125 0.07 0.26 0.07 0.408 c 0 0.238 -0.065 0.434 -0.193 0.586 c -0.125 0.148 -0.287 0.256 -0.486 0.322 c 0.109 0.027 0.215 0.068 0.316 0.127 c 0.105 0.055 0.199 0.127 0.281 0.217 c 0.082 0.086 0.149 0.192 0.199 0.316 c 0.051 0.125 0.074 0.272 0.074 0.439 c 0 0.172 -0.029 0.328 -0.092 0.473 c -0.058 0.144 -0.149 0.272 -0.27 0.381 c -0.117 0.105 -0.268 0.19 -0.451 0.252 c -0.183 0.059 -0.397 0.088 -0.643 0.088 c -0.129 0 -0.248 -0.01 -0.357 -0.029 c -0.105 -0.016 -0.199 -0.035 -0.281 -0.059 c -0.082 -0.023 -0.152 -0.047 -0.211 -0.07 c -0.055 -0.023 -0.096 -0.043 -0.123 -0.059 l 0.1 -0.34 c 0.023 0.016 0.063 0.035 0.117 0.059 c 0.055 0.023 0.119 0.047 0.193 0.07 c 0.078 0.019 0.164 0.037 0.258 0.053 c 0.098 0.016 0.203 0.023 0.316 0.023 c 0.37 0 0.635 -0.076 0.795 -0.229 c 0.16 -0.156 0.24 -0.364 0.24 -0.625 c 0 -0.172 -0.033 -0.315 -0.1 -0.428 c -0.062 -0.113 -0.151 -0.203 -0.264 -0.27 c -0.109 -0.07 -0.239 -0.119 -0.387 -0.146 c -0.144 -0.031 -0.297 -0.047 -0.461 -0.047 l -0.059 0 l 0 -0.314 l 0.135 0 c 0.105 0 0.211 -0.01 0.32 -0.029 c 0.113 -0.023 0.215 -0.065 0.305 -0.123 c 0.094 -0.059 0.17 -0.137 0.229 -0.234 c 0.062 -0.098 0.094 -0.223 0.094 -0.375 c 0 -0.129 -0.022 -0.236 -0.064 -0.326 c -0.043 -0.094 -0.102 -0.168 -0.176 -0.223 c -0.07 -0.055 -0.154 -0.094 -0.252 -0.117 c -0.094 -0.027 -0.192 -0.041 -0.297 -0.041 c -0.211 0 -0.375 0.029 -0.492 0.088 c -0.117 0.059 -0.213 0.113 -0.287 0.164 l -0.164 -0.299 c 0.039 -0.027 0.088 -0.059 0.146 -0.094 c 0.062 -0.035 0.135 -0.068 0.217 -0.1 c 0.082 -0.031 0.172 -0.057 0.27 -0.076 c 0.101 -0.023 0.211 -0.035 0.328 -0.035 z" style="fill:#ececec;fill-opacity:1"/>
</svg>
